source/images/easel-favicon.svg

<svg width="32" height="32" viewBox="0 0 32 32" fill="none" xmlns="http://www.w3.org/2000/svg">
<path d="M6.04103 6.67732C0.63408 10.5983 2.46214 18.7717 2.46214 18.7717L3.61244 17.6321C2.28173 10.5348 5.38673 8.1268 5.38673 8.1268C5.38673 8.1268 6.04823 6.67213 6.04103 6.67732Z" fill="black"/>
<path d="M17.7853 0.433395C16.4314 1.06702 6.07197 6.60348 5.99146 6.71996C1.37171 13.398 6.35641 19.6555 6.35641 19.6555L9.52458 17.3181L9.12605 16.2272L6.88093 17.7358C4.46547 14.4006 4.46113 8.60842 6.61803 7.31313C8.16748 6.45616 9.087 8.2372 8.09147 8.90346L9.14324 9.13671C10.6188 8.3156 19.938 3.12929 20.399 2.87861C21.8153 2.10855 20.8072 -0.980748 17.7853 0.433395Z" fill="black"/>
<path d="M16.9482 25.2857L17.628 31.4985C17.6381 31.5905 17.7397 31.6613 17.8614 31.6613H17.8647C17.9878 31.66 18.0886 31.5868 18.0954 31.4938L18.5665 25.0589C17.8942 25.2128 17.3202 25.2674 16.9482 25.2857Z" fill="black"/>
<path d="M24.6856 28.4414L22.1282 23.3919C21.8524 23.6049 21.4928 23.8467 21.0302 24.102L24.2736 28.6146C24.3166 28.6746 24.4002 28.7126 24.4842 28.7072C24.6128 28.7066 24.7168 28.6274 24.7168 28.5299C24.7168 28.4977 24.7054 28.4676 24.6856 28.4414Z" fill="black"/>
<path d="M12.6495 17.9698L8.79522 28.0326C8.74468 28.1646 8.84487 28.3021 9.02357 28.3462C9.06148 28.3555 9.10029 28.3601 9.13838 28.3601C9.27954 28.3601 9.41258 28.2987 9.46854 28.1987L13.6656 20.6958L12.6495 17.9698Z" fill="black"/>
<path d="M16.1702 16.0224C15.423 16.5013 15.1993 16.9021 15.3997 17.6513L15.4676 17.9056C15.6816 18.7054 16.0102 18.8846 16.7501 18.562L16.9723 18.4651C17.6681 18.1617 18.1872 17.3854 18.5665 16.5171L18.1204 14.8496C17.6359 15.1366 16.7752 15.6262 16.1702 16.0224Z" fill="black"/>
<path d="M25.4707 22.4647L20.8114 3.80555L9.59756 9.64872L9.40149 8.94969C9.20985 8.83498 8.6773 8.50652 7.97996 8.94969C7.85818 9.02708 7.80056 9.17432 7.83758 9.31369L13.3281 29.985C13.3553 30.087 13.4295 30.1699 13.5278 30.2083C13.5665 30.2234 13.6072 30.2307 13.6477 30.2307C13.71 30.2307 13.772 30.2131 13.8258 30.1786L25.3275 22.8205C25.4461 22.7445 25.5035 22.6017 25.4707 22.4647ZM19.4297 23.903C19.0061 24.1544 18.5295 23.9294 18.3706 23.3973C18.2118 22.8679 18.4235 22.2322 18.8471 21.9808C19.2708 21.7293 19.7473 21.9543 19.9088 22.4838C20.0678 23.0135 19.8534 23.6515 19.4297 23.903ZM19.2927 19.1495L18.984 17.9953C18.3421 19.1605 17.731 20.005 16.5614 20.515L16.3058 20.6264C14.8665 21.2541 14.0598 21.24 13.4742 19.0507L13.4053 18.793C12.8705 16.7936 13.7377 16.0301 14.9763 15.2791C16.0549 14.6161 16.6556 14.2957 17.8129 13.6177L17.7069 13.2214C17.3613 11.9297 16.8303 11.7564 15.825 12.1947C15.3605 12.3973 14.7153 12.7373 14.2662 13.1244L14.4141 14.1769L12.9443 14.8178L12.2988 12.4045C13.2703 11.654 14.6634 10.854 15.5924 10.4488L16.207 10.1807C17.9617 9.41554 19.1242 10.2559 19.6591 12.2554L20.8114 16.5631C21.0601 16.4938 21.3988 16.3837 21.837 16.2695L22.2612 17.855L19.2927 19.1495Z" fill="black"/>
</svg>

<svg width="32" height="32" fill="none" xmlns="http://www.w3.org/2000/svg"><circle cx="16" cy="15.342" r="10.992" fill="#fff" filter="url(#filter0_f)"/><path d="M6.041 6.677C.634 10.598 2.462 18.772 2.462 18.772l1.15-1.14c-1.33-7.097 1.775-9.505 1.775-9.505s.661-1.455.654-1.45z" fill="#FF6746"/><path d="M17.785.433c-1.354.634-11.713 6.17-11.794 6.287-4.62 6.678.365 12.936.365 12.936l3.169-2.338-.399-1.09-2.245 1.508C4.465 14.4 4.46 8.608 6.618 7.313c1.55-.857 2.469.924 1.473 1.59l1.052.234C10.62 8.316 19.938 3.129 20.4 2.879c1.416-.77.408-3.86-2.614-2.446zm-.837 24.853l.68 6.212c.01.092.112.163.233.163h.004c.123-.001.224-.074.23-.167l.472-6.435a9.427 9.427 0 0 1-1.619.227zm7.738 3.155l-2.558-5.05a8.566 8.566 0 0 1-1.098.711l3.244 4.513c.043.06.126.098.21.092.129 0 .233-.08.233-.177a.146.146 0 0 0-.031-.089zM12.649 17.97L8.796 28.033c-.05.132.05.27.229.313.037.01.076.014.114.014.142 0 .275-.061.33-.161l4.198-7.503-1.017-2.726zm3.521-1.948c-.747.48-.97.88-.77 1.63l.068.254c.214.8.542.979 1.282.656l.222-.097c.696-.303 1.215-1.08 1.595-1.948l-.447-1.667c-.484.287-1.345.776-1.95 1.172z" fill="#FF6746"/><path d="M25.47 22.465l-4.659-18.66L9.598 9.65l-.197-.7c-.191-.114-.724-.442-1.421 0a.33.33 0 0 0-.142.365l5.49 20.671a.331.331 0 0 0 .498.194l11.502-7.358a.331.331 0 0 0 .143-.356zm-6.04 1.438c-.424.251-.9.026-1.06-.506-.158-.53.053-1.165.477-1.416.424-.252.9-.027 1.062.503.159.53-.056 1.167-.48 1.419zm-.137-4.753l-.309-1.155c-.642 1.165-1.253 2.01-2.423 2.52l-.255.111c-1.44.628-2.246.614-2.832-1.575l-.069-.258c-.534-2 .333-2.763 1.571-3.514 1.079-.663 1.68-.983 2.837-1.661l-.106-.397c-.346-1.291-.877-1.465-1.882-1.026-.464.202-1.11.542-1.559.93l.148 1.052-1.47.64-.645-2.412c.971-.751 2.364-1.551 3.293-1.956l.615-.268c1.755-.765 2.917.075 3.452 2.074l1.152 4.308c.25-.07.588-.18 1.026-.293l.424 1.585-2.968 1.294z" fill="#FF6746"/><defs><filter id="filter0_f" x="1.008" y=".35" width="29.984" height="29.984" filterUnits="userSpaceOnUse" color-interpolation-filters="sRGB"><feFlood flood-opacity="0" result="BackgroundImageFix"/><feBlend in="SourceGraphic" in2="BackgroundImageFix" result="shape"/><feGaussianBlur stdDeviation="2" result="effect1_foregroundBlur"/></filter></defs></svg>
